X:34
T:Castle Grant
M:C|
L:1/8
K:G
e/f/|gddB A a2 e/f/|gddB gdde|gddB A a2 e/f/|gedB G2G:|
A   |BGBG cAAc     |BGBG cABA|cABG cAAa     |gedB G2G:|

% @@@@@@@@@@@@@@@@@@@@@@@@@@@@@@@@@@

%% 35. ===============================================================================

% @THE SHIRE OF@
%   &Air.&
%
% *FIRST Couple cast off without setting, and turn.  Second Couple do the same.  *Four
% hands across quite round.  Four Left hands across back again.  *FIRST Couple lead up,
% the 2d lead down, then 1st and 2d Couple lead abreast to other.  First and 2d Men
% lead to the Wall, 1st and 2d Women go to the other Wall at the same time; then lead
% back again to other abreast.  *Four hands quickly round, and first Couple cast off.
% Then Right & Left.

% @@@@@@@@@@@@@@@@@@@@@@@@@@@@@@@@@@

